X: 10451
T: CLASPER'S HORNPIPE
C: Arranged by W. B. Laybourn
R: hornpipe, reel
B: K\"ohler's Violin Repository, v.1, 1885 p.45 #1
F: http://www.archive.org/details/klersviolinrepos01edin
Z: 2011 John Chambers <jc:trillian.mit.edu>
M: C|
L: 1/8
K: D
(uag) |\
(fg)fe (dc)dB | A2F2 F2(FE) | DFAd fede | f2e2 e2(de) |
(fg)fe (dc)dB | A2F2 F2(FE) | DFAd fede | f2d2 d2 :: (uef) |
gfeg fedf | edce d2(ef) | gfeg fedf | a2A2 A2(ef) |
gfeg fedf | edce dfeg | fdec dBAG | F2D2 D2 :|

%%sep 2 1 500

